**kern
*I"钢琴, MIDI
*clefG2
*k[]
*M4/4
*MM113
=1
1r
=2
*k[b-e-a-d-g-c-]
8B-L
8A-
8G-
[8B-J
8B-L]
8A-
8G-
8G-J
=3
4g-
4e-
8d-L
8B-J
4B-
=4
8B-L
8A-
8G-
[8B-J
8B-L]
8A-
8G-
8A-J
=5
4c-
4B-
8A-L
8G-J
4G-
=6
8B-L
8A-
8G-
8A-J
4.f
8g-
=7
[2.g-
8g-L]
8e-J
=8
4g-
4e-
8d-L
8B-
8A-
8G-J
=9
1r
=10
1r
=11
1r
=12
1r
=13
8D-L
8G-
8A-
8B-J
4A-'
4G-
=14
8D-L
8G-
8A-
8B-J
4A-
4r
=15
4B-
4d-
4e-
4d-
=16
4B-
4d-
8B-L
8d-J
4A-
=17
4B-
8B-L
8A-J
8B-L
8A-
8G-
8A-J
=18
8B-L
8e-
8d-
8B-J
4.G-
16G-LL
16A-JJ
=19
4B-
4e-
8d-L
8B-
8A-
8G-J
=20
2.G-
8r
16G-LL
16A-JJ
=21
4B-
4e-
8d-L
8B-
8A-
8G-J
=22
1G-
=23
1r
=24
8B-L
8A-
8G-
[8B-J
8B-L]
8A-
8G-
8G-J
=25
4g-
4e-
8d-L
8B-J
4B-
=26
8B-L
8A-
8G-
[8B-J
8B-L]
8A-
8G-
8A-J
=27
4c-
4B-
8A-L
8G-J
4G-
=28
8B-L
8A-
8G-
8A-J
4.f
8g-
=29
[2.g-
8g-L]
8e-J
=30
4g-
4e-
8d-L
8B-
8A-
8G-J
=31
1r
=32
1r
=33
1r
=34
1r
=35
8D-L
8G-
8A-
8B-J
4A-'
4G-
=36
8D-L
8G-
8A-
8B-J
4A-
4r
=37
4B-
4d-
4e-
4d-
=38
4B-
4d-
8B-L
8d-J
4A-
=39
4B-
8B-L
8A-J
8B-L
8A-
8G-
8A-J
=40
8B-L
8e-
8d-
8B-J
4.G-
16G-LL
16A-JJ
=41
4B-
4e-
8d-L
8B-
8A-
8G-J
=42
2.G-
8r
16G-LL
16A-JJ
=43
4B-
4e-
8d-L
8B-
8A-
8G-J
=44
1G-
=45
1r
=46
8B-L
8A-
8G-
[8B-J
8B-L]
8A-
8G-
8G-J
=47
4g-
4e-
8d-L
8B-J
4B-
=48
8B-L
8A-
8G-
[8B-J
8B-L]
8A-
8G-
8A-J
=49
4c-
4B-
8A-L
8G-J
4G-
=50
8B-L
8A-
8G-
8A-J
4.f
8g-
=51
[2.g-
8g-L]
8e-J
=52
4g-
4e-
8d-L
8B-
8A-
8G-J
=53
1r
=54
1r
=55
1r
=56
1r
=57
1r
=58
1r
=59
1r
=60
1r
=61
1r
=62
1r
=63
2r
*clefF4
4GG-
8AA-L
[8BB-J
=64
4BB-]
8.BB-L
*clefG2
[16E-Jk
8E-]
4.D-
=65
4D-
8BB-L
[8D-J
4D-]
4D-
=66
16E-LL
16D-JJ
*clefF4
4BB-
8AA-
4GG-
8r
[8GG-
=67
8GG-L]
8E-J
4D-
8BB-
4.AA-
=68
4GG-
8BB-L
[8AA-J
8AA-L]
8GG-J
4GG-
=69
8r
4GG-
8AA-
4.BB-
[8BB-
=70
8BB-L]
*clefG2
8E-J
[4D-
8D-]
4D-
8BB-
=71
4D-
16E-LL
16D-J
*clefF4
[8BB-J
8BB-L]
8AA-J
4GG-
=72
8r
4GG-
8E-
4D-
8BB-L
[8AA-J
=73
4AA-]
4GG-
8BB-
4AA-
8GG-
=74
2GG-
4r
4EE-
=75
8BB-
4AA-
8BB-
[2GG-
=76
2GG-]
2r
=77
2r
8BB-L
8AA-
8GG-
[8BB-J
=78
8BB-L]
8AA-
8GG-
8GG-J
*clefG2
4G-
4E-
=79
8D-L
8BB-J
4BB-
*clefF4
8BB-L
8AA-
8GG-
[8BB-J
=80
8BB-L]
8AA-
8GG-
8AA-J
4C-
4BB-
=81
8AA-L
8GG-J
4GG-
8BB-L
8AA-
8GG-
8AA-J
*clefG2
=82
4.F
8G-
[2G-
=83
4.G-]
8E-
4G-
4E-
=84
4G-
4A-
*clefF4
8BB-L
8AA-
8GG-
[8BB-J
=85
8BB-L]
8AA-
8GG-
8GG-J
*clefG2
4G-
4E-
=86
8D-L
8BB-J
4BB-
*clefF4
8BB-L
8AA-
8GG-
[8BB-J
=87
8BB-L]
8AA-
8GG-
8AA-J
4C-
4BB-
=88
8AA-L
8GG-J
4GG-
8BB-L
8AA-
8GG-
8AA-J
*clefG2
=89
4.F
8G-
[2G-
=90
2G-]
8r
4G-
8E-
=91
4D-
8.E-L
[16G-Jk
2G-_
=92
1G-_
=93
2G-]
2r
==
*-
